packages/icons/svgs/duotone/Source=water-container.svg

<svg width="24" height="24" viewBox="0 0 24 24" fill="none" xmlns="http://www.w3.org/2000/svg">
<path fill-rule="evenodd" clip-rule="evenodd" d="M3 2C3.55228 2 4 2.44772 4 3V20.8706C4.02186 20.8885 4.05286 20.9115 4.09587 20.9394C4.32935 21.0907 4.76097 21.2733 5.45778 21.4424C6.83724 21.7774 8.99717 22 12 22C15.0028 22 17.1628 21.7774 18.5422 21.4424C19.239 21.2733 19.6707 21.0907 19.9041 20.9394C19.9471 20.9115 19.9781 20.8885 20 20.8706V3C20 2.44772 20.4477 2 21 2C21.5523 2 22 2.44772 22 3V21C22 21.7726 21.4816 22.3002 20.992 22.6176C20.4872 22.9448 19.8079 23.1932 19.0141 23.386C17.4124 23.7749 15.0723 24 12 24C8.9277 24 6.58763 23.7749 4.98587 23.386C4.19207 23.1932 3.51278 22.9448 3.008 22.6176C2.5184 22.3002 2 21.7726 2 21V3C2 2.44772 2.44772 2 3 2ZM20.0464 20.8257C20.0468 20.8257 20.0448 20.8287 20.0395 20.8345C20.0434 20.8285 20.046 20.8256 20.0464 20.8257ZM3.95359 20.8257C3.95395 20.8256 3.9566 20.8285 3.96048 20.8345C3.95517 20.8287 3.95324 20.8257 3.95359 20.8257Z" fill="black" style="fill:black;fill-opacity:1;"/>
<path fill-rule="evenodd" clip-rule="evenodd" d="M3.9536 3.17432C3.95324 3.17428 3.95517 3.17131 3.96048 3.16552C3.95661 3.17146 3.95396 3.17435 3.9536 3.17432ZM4.19735 3C4.4463 2.86196 4.85174 2.7047 5.45778 2.55755C6.83724 2.22261 8.99717 2 12 2C15.0028 2 17.1628 2.22261 18.5422 2.55755C19.1483 2.7047 19.5537 2.86196 19.8026 3C19.5537 3.13804 19.1483 3.2953 18.5422 3.44245C17.1628 3.77739 15.0028 4 12 4C8.99717 4 6.83724 3.77739 5.45778 3.44245C4.85174 3.2953 4.4463 3.13804 4.19735 3ZM20.0464 3.17432C20.046 3.17435 20.0434 3.17146 20.0395 3.16552C20.0448 3.17131 20.0468 3.17428 20.0464 3.17432ZM20.0395 2.83448C20.0434 2.82854 20.046 2.82565 20.0464 2.82568C20.0468 2.82572 20.0448 2.82869 20.0395 2.83448ZM3.96048 2.83448C3.95517 2.82869 3.95324 2.82572 3.9536 2.82568C3.95396 2.82565 3.95661 2.82854 3.96048 2.83448ZM4.98588 0.614021C6.58763 0.225105 8.9277 0 12 0C15.0723 0 17.4124 0.225105 19.0141 0.614021C19.8079 0.806762 20.4872 1.05517 20.992 1.38238C21.4816 1.69975 22 2.22745 22 3C22 3.77255 21.4816 4.30025 20.992 4.61762C20.4872 4.94483 19.8079 5.19324 19.0141 5.38598C17.4124 5.7749 15.0723 6 12 6C8.9277 6 6.58763 5.7749 4.98588 5.38598C4.19207 5.19324 3.51278 4.94483 3.008 4.61762C2.5184 4.30025 2 3.77255 2 3C2 2.22745 2.5184 1.69975 3.008 1.38238C3.51278 1.05517 4.19207 0.806762 4.98588 0.614021Z" fill="black" style="fill:black;fill-opacity:1;"/>
<path opacity="0.55" d="M12 19C13.9333 19 16 17.4875 16 14.875C16 12.4688 12 8 12 8C12 8 8 12.4688 8 14.875C8 17.4875 10.0667 19 12 19Z" fill="black" style="fill:black;fill-opacity:1;"/>
</svg>

<svg xmlns="http://www.w3.org/2000/svg" width="24" height="24" viewBox="0 0 24 24"><path fill-rule="evenodd" d="M3 2a1 1 0 0 1 1 1v17.87q.032.027.096.07c.233.15.665.333 1.362.502 1.38.335 3.54.558 6.542.558 3.003 0 5.163-.223 6.542-.558.697-.169 1.129-.351 1.362-.503a1 1 0 0 0 .096-.068V3a1 1 0 1 1 2 0v18c0 .773-.518 1.3-1.008 1.618-.505.327-1.184.575-1.978.768-1.602.389-3.942.614-7.014.614s-5.412-.225-7.014-.614c-.794-.193-1.473-.441-1.978-.768C2.518 22.3 2 21.773 2 21V3a1 1 0 0 1 1-1m17.046 18.826-.006.008zm-16.092 0 .006.008z" clip-rule="evenodd"/><path fill-rule="evenodd" d="m3.954 3.174.006-.008zM4.197 3c.25-.138.655-.295 1.26-.442C6.838 2.223 8.998 2 12 2s5.163.223 6.542.558c.606.147 1.012.304 1.26.442-.248.138-.654.295-1.26.442C17.162 3.777 15.002 4 12 4c-3.003 0-5.163-.223-6.542-.558-.606-.147-1.012-.304-1.26-.442m15.85.174-.008-.008q.009.008.007.008m-.008-.34.007-.008zm-16.079 0q-.008-.008-.006-.008zM4.986.614C6.588.225 8.928 0 12 0s5.412.225 7.014.614c.794.193 1.473.441 1.978.768C21.482 1.7 22 2.227 22 3s-.518 1.3-1.008 1.618c-.505.327-1.184.575-1.978.768C17.412 5.775 15.072 6 12 6s-5.412-.225-7.014-.614c-.794-.193-1.473-.441-1.978-.768C2.518 4.3 2 3.773 2 3s.518-1.3 1.008-1.618c.505-.327 1.184-.575 1.978-.768" clip-rule="evenodd"/><path d="M12 19c1.933 0 4-1.512 4-4.125C16 12.469 12 8 12 8s-4 4.469-4 6.875C8 17.488 10.067 19 12 19" opacity=".55"/></svg>
